X:49
T: Schwabentoechterlein
N: A0052
O: Europa, Mitteleuropa, Deutschland
N: Melodie bei Joh. Ott 1544 No. 45.
R: Romanze, Ballade, Lied
M: 4/2
L: 1/4
K: G
 |  |  | G4G2G2 | A4G4 | c4B4 | c4z2
c2 | c4c4 | B3AG4 | A4A4 | d4z2
d2 | c3BA2G2 | A4G4 | d2d2d3c | B4A2A2 | G8

@@@ Tune index: 49
